storage/app/icons/phosphoricons/bold/selection-inverse-bold.svg

<svg xmlns="http://www.w3.org/2000/svg" fill="currentColor" viewBox="0 0 256 256"><path d="M156 216a12 12 0 0 1-12 12h-32a12 12 0 0 1 0-24h32a12 12 0 0 1 12 12M40 156a12 12 0 0 0 12-12v-32a12 12 0 0 0-24 0v32a12 12 0 0 0 12 12m32 48H52v-20a12 12 0 0 0-24 0v24a20 20 0 0 0 20 20h24a12 12 0 0 0 0-24M228 48v160a20 20 0 0 1-20 20h-24a12 12 0 0 1 0-24h3L52 69v3a12 12 0 0 1-24 0V48a20 20 0 0 1 20-20h160a20 20 0 0 1 20 20m-24 4H69l135 135Z"/></svg>

<svg xmlns="http://www.w3.org/2000/svg" viewBox="0 0 256 256" fill="currentColor"><path d="M156,216a12,12,0,0,1-12,12H112a12,12,0,0,1,0-24h32A12,12,0,0,1,156,216ZM40,156a12,12,0,0,0,12-12V112a12,12,0,0,0-24,0v32A12,12,0,0,0,40,156Zm32,48H52V184a12,12,0,0,0-24,0v24a20,20,0,0,0,20,20H72a12,12,0,0,0,0-24ZM228,48V208a20,20,0,0,1-20,20H184a12,12,0,0,1,0-24h3L52,69v3a12,12,0,0,1-24,0V48A20,20,0,0,1,48,28H208A20,20,0,0,1,228,48Zm-24,4H69L204,187Z"/></svg>
